X:13
T: "Der Jaeger"
N: Z1295
O: Europa, Mitteleuropa, Deutschland, Boehmen
R: Jaeger - Lied, Liebe]
M: 3/4
L: 1/8
K: Eb
(3Bcd | e2c2AA | c2B2
(3B,EG | B2A2F2 | c2B2
(3Bcd | e2c2AA | c2B2
(3B,EG | B2A2D2 | E2z2
(3B,EG | B2A2FA | c2B2
(3B,EG | B2A2FA | c2B2
(3Bcd | e2c2AA | c2B2
(3B,EG | B2A2D2 | E2z2

